icons/lines/youtube.svg

<svg xmlns="http://www.w3.org/2000/svg" width="24" height="24" viewBox="0 0 24 24" fill="none" stroke="currentColor" stroke-width="2" stroke-linecap="round" stroke-linejoin="round" >
  <path d="M17 20H7C4 20 2 18 2 15V9C2 6 4 4 7 4H17C20 4 22 6 22 9V15C22 18 20 20 17 20Z" stroke-miterlimit="10"/>
  <path d="M11.3996 9.5L13.8996 11C14.7996 11.6 14.7996 12.5 13.8996 13.1L11.3996 14.6C10.3996 15.2 9.59961 14.7 9.59961 13.6V10.6C9.59961 9.3 10.3996 8.9 11.3996 9.5Z" stroke-miterlimit="10"/>
  </svg>

<svg xmlns="http://www.w3.org/2000/svg" width="24" height="24" viewBox="0 0 24 24" fill="none" stroke="currentColor" stroke-width="2" stroke-linecap="round" stroke-linejoin="round">
  <path d="M13.9 11c.9.6.9 1.5 0 2.1l-2.5 1.5c-1 .6-1.8.1-1.8-1v-3c0-1.3.8-1.7 1.8-1.1z" />
  <path d="M7 20c-3 0-5-2-5-5V9c0-3 2-5 5-5h10c3 0 5 2 5 5v6c0 3-2 5-5 5z" />
</svg>
